X:13012
T:Merry Month of May, The
R:Jig
C:Trad.
O:England
M:6/8
L:1/8
Q:1/8=180
K:G
D|\
"G"G2G GFG|"Am"A2B c2d|"C"e2e "G"dBG|"A7"GFG "D7"AFD|
"G"G2G GFG|"Am"A2B c2d|"C"efg "G"dcB|"D7"AGF "G"G2:|
|:B|"D7"AAA A2B|"C"cdc "G"B2d|"G"g2d g2d|"D7"ded cBA|
"G"G2G GFG|"Am"A2B c2d|"C"efg "G"dcB|"D7"AGF "G"G2:|

